src/assets/images/new.svg

<svg width="99" height="99" viewBox="0 0 99 99" fill="none" xmlns="http://www.w3.org/2000/svg">
<path fill-rule="evenodd" clip-rule="evenodd" d="M23.5799 54.5541C20.4673 60.201 18.723 65.2877 18.3481 69.8135C18.5565 74.1652 23.063 75.093 31.8678 72.597C46.0188 67.6238 59.6045 58.9949 72.6246 46.7109C79.0397 40.39 81.7039 35.2474 80.617 31.283C79.1706 26.002 73.564 23.8813 63.7973 24.9209C63.3793 24.3415 63.4824 23.8446 64.1065 23.43C73.8765 20.8147 86.8366 24.8559 83.5486 37.0674C77.9684 50.0252 65.3515 61.7408 45.6981 72.2143C30.8116 79.0524 21.0043 80.1126 16.2765 75.395C12.6728 69.9791 14.8063 61.9793 22.6733 51.3966L22.7509 52.0943C22.7752 52.5704 23.1074 52.9749 23.1537 53.4309C23.1989 53.8772 23.441 54.0313 23.5799 54.5541Z" fill="#FEFEFE"/>
<path fill-rule="evenodd" clip-rule="evenodd" d="M21.6284 61.7222L68.6935 61.3157V23.78L62.883 20.4099L57.0725 23.6638V33.3092L44.5365 39.4247L44.2894 32.4957H41.7328L41.3551 40.9935L37.4185 43.0273L36.5034 27.6149H34.2954L33.4819 44.6978L30.3878 46.056L28.9498 24.9422H26.7417L25.5795 48.3582L21.6284 50.3336V61.7222V61.7222ZM23.9214 60.6646L26.2458 60.6432V51.8314L27.873 51.1921V60.6429H31.3599V49.5649L32.9871 48.7514V60.6358H36.1835V47.2403L37.7526 46.4267V60.633H41.1813V44.7994L42.8086 43.9859V60.6287H46.1211V42.4749L47.8064 41.6612V60.6358H51.1771V40.1503L52.6881 39.3366V60.5921H56.7561V35.9079L23.9214 51.4244V60.6646ZM58.6628 24.7073L62.3539 22.4984V60.4834H58.6628V24.7073Z" fill="#FEFEFE"/>
<path fill-rule="evenodd" clip-rule="evenodd" d="M49.3242 0.0224609C76.5653 0.0224609 98.6486 22.1058 98.6486 49.3468C98.6486 76.5878 76.5653 98.6712 49.3242 98.6712C22.0832 98.6712 0 76.5878 0 49.3468C0 22.1058 22.0832 0.0224609 49.3242 0.0224609ZM49.3242 4.43146C74.1303 4.43146 94.2397 24.5409 94.2397 49.3468C94.2397 74.1528 74.1303 94.2622 49.3242 94.2622C24.5183 94.2622 4.4089 74.1528 4.4089 49.3468C4.4089 24.5409 24.5183 4.43146 49.3242 4.43146V4.43146Z" fill="#FEFEFE"/>
</svg>

<svg width="99" height="99" fill="none" xmlns="http://www.w3.org/2000/svg"><path fill-rule="evenodd" clip-rule="evenodd" d="M23.58 54.554c-3.113 5.647-4.857 10.734-5.232 15.26.209 4.351 4.715 5.279 13.52 2.783 14.15-4.973 27.737-13.602 40.757-25.886 6.415-6.321 9.079-11.464 7.992-15.428-1.446-5.281-7.053-7.402-16.82-6.362-.418-.58-.315-1.076.31-1.491 9.77-2.615 22.73 1.426 19.442 13.637-5.58 12.958-18.198 24.674-37.85 35.147-14.887 6.838-24.695 7.899-29.422 3.181-3.604-5.416-1.47-13.416 6.396-23.998l.078.697c.024.476.356.88.403 1.337.045.446.287.6.426 1.123z" fill="#FEFEFE"/><path fill-rule="evenodd" clip-rule="evenodd" d="m21.628 61.722 47.066-.406V23.78l-5.811-3.37-5.81 3.254v9.645l-12.537 6.116-.247-6.93h-2.556l-.378 8.498-3.936 2.034-.916-15.412h-2.208l-.813 17.083-3.094 1.358-1.438-21.114h-2.208l-1.163 23.416-3.95 1.976v11.388zm2.293-1.057 2.325-.022v-8.812l1.627-.639v9.45h3.487V49.566l1.627-.814v11.885h3.197V47.24l1.569-.813v14.206h3.428V44.799l1.628-.813v16.643h3.312V42.475l1.685-.814v18.975h3.371V40.15l1.511-.813v21.255h4.068V35.908L23.921 51.424v9.24zm34.742-35.958 3.69-2.209v37.985h-3.69V24.707z" fill="#FEFEFE"/><path fill-rule="evenodd" clip-rule="evenodd" d="M49.324.022c27.241 0 49.325 22.084 49.325 49.325 0 27.24-22.084 49.324-49.325 49.324C22.084 98.671 0 76.588 0 49.347S22.083.022 49.324.022zm0 4.41c24.806 0 44.916 20.109 44.916 44.915 0 24.806-20.11 44.915-44.916 44.915-24.806 0-44.915-20.11-44.915-44.915 0-24.806 20.11-44.916 44.915-44.916z" fill="#FEFEFE"/></svg>
